resources/svg/rupee-o.svg

<svg xmlns="http://www.w3.org/2000/svg" viewBox="0 0 15 15" fill="none"><path d="M2.5 8.5V8C2.29076 8 2.10365 8.13029 2.03106 8.32653C1.95846 8.52277 2.01574 8.74346 2.1746 8.87963L2.5 8.5ZM2 1H13V0H2V1ZM2.5 9H5.5V8H2.5V9ZM5.5 0H2.5V1H5.5V0ZM2.1746 8.87963L9.1746 14.8796L9.8254 14.1204L2.8254 8.12037L2.1746 8.87963ZM10 4.5C10 2.01472 7.98528 0 5.5 0V1C7.433 1 9 2.567 9 4.5H10ZM5.5 9C7.98528 9 10 6.98528 10 4.5H9C9 6.433 7.433 8 5.5 8V9ZM2 5H13V4H2V5Z" fill="black"/></svg>

<svg xmlns="http://www.w3.org/2000/svg" viewBox="0 0 15 15" fill="none"><path d="M2.5 8.5V8a.5.5 0 00-.325.88L2.5 8.5zM2 1h11V0H2v1zm.5 8h3V8h-3v1zm3-9h-3v1h3V0zM2.175 8.88l7 6 .65-.76-7-6-.65.76zM10 4.5A4.5 4.5 0 005.5 0v1A3.5 3.5 0 019 4.5h1zM5.5 9A4.5 4.5 0 0010 4.5H9A3.5 3.5 0 015.5 8v1zM2 5h11V4H2v1z" fill="currentColor"/></svg>
